src/svgs/water-tap.svg

<svg xmlns="http://www.w3.org/2000/svg" viewBox="0 0 24 24" width="512" height="512" aria-labelledby="newater-tap-desc newater-tap-title"><title id="newater-tap-title">Water Tap Icon</title><desc id="newater-tap-desc">A picture depicting a water tap.</desc><path d="M22 10v12h-3v-2H5v2H2V10h3v2h3V8a1 1 0 011-1h1V5H7.5a1.5 1.5 0 010-3h9a1.5 1.5 0 010 3H14v2h1a1 1 0 011 1v4h3v-2z"/></svg>

<svg xmlns="http://www.w3.org/2000/svg" viewBox="0 0 24 24"><path d="M22,10V22H19V20H5v2H2V10H5v2H8V8A1,1,0,0,1,9,7h1V5H7.5a1.5,1.5,0,0,1,0-3h9a1.5,1.5,0,0,1,0,3H14V7h1a1,1,0,0,1,1,1v4h3V10Z"/></svg>
